assets/icons/utility/justify_text.svg

<?xml version="1.0"?><svg xmlns="http://www.w3.org/2000/svg" width="52" height="52" viewBox="0 0 52 52"><path fill="#fff" d="m48 6.5c0-0.8-0.7-1.5-1.5-1.5h-41c-0.8 0-1.5 0.7-1.5 1.5v3c0 0.8 0.7 1.5 1.5 1.5h41c0.8 0 1.5-0.7 1.5-1.5v-3z m0 12c0-0.8-0.7-1.5-1.5-1.5h-41c-0.8 0-1.5 0.7-1.5 1.5v3c0 0.8 0.7 1.5 1.5 1.5h41c0.8 0 1.5-0.7 1.5-1.5v-3z m0 24c0-0.8-0.7-1.5-1.5-1.5h-41c-0.8 0-1.5 0.7-1.5 1.5v3c0 0.8 0.7 1.5 1.5 1.5h41c0.8 0 1.5-0.7 1.5-1.5v-3z m0-12c0-0.8-0.7-1.5-1.5-1.5h-41c-0.8 0-1.5 0.7-1.5 1.5v3c0 0.8 0.7 1.5 1.5 1.5h41c0.8 0 1.5-0.7 1.5-1.5v-3z"></path></svg>

<svg xmlns="http://www.w3.org/2000/svg" x="0px" y="0px"
	 width="52px" height="52px" viewBox="0 0 52 52" enable-background="new 0 0 52 52" xml:space="preserve">
<path fill="#FFFFFF" d="M48,6.5C48,5.7,47.3,5,46.5,5h-41C4.7,5,4,5.7,4,6.5v3C4,10.3,4.7,11,5.5,11h41c0.8,0,1.5-0.7,1.5-1.5V6.5z"
	/>
<path fill="#FFFFFF" d="M48,18.5c0-0.8-0.7-1.5-1.5-1.5h-41C4.7,17,4,17.7,4,18.5v3C4,22.3,4.7,23,5.5,23h41c0.8,0,1.5-0.7,1.5-1.5
	V18.5z"/>
<path fill="#FFFFFF" d="M48,42.5c0-0.8-0.7-1.5-1.5-1.5h-41C4.7,41,4,41.7,4,42.5v3C4,46.3,4.7,47,5.5,47h41c0.8,0,1.5-0.7,1.5-1.5
	V42.5z"/>
<path fill="#FFFFFF" d="M48,30.5c0-0.8-0.7-1.5-1.5-1.5h-41C4.7,29,4,29.7,4,30.5v3C4,34.3,4.7,35,5.5,35h41c0.8,0,1.5-0.7,1.5-1.5
	V30.5z"/>
</svg>
